X: 2520
T: Ballydesmond, The
R: slide
M: 12/8
K: Adorian
EFG A2B c2d e3|G3 EDE G2E D3|
EFG A2B c2d e2f|1 g2e d2e B2A A2G:|2 g2e d2e B2A A3||
|:efg a2b a2g e2f|g2a g2e def g3|
efg a2b a2g e2f|1 g2e d2e B2A A3:|2 g2e d2e B2A A2G||

